!!!Genre:	Shtok
!!!Mode:	Major
!!!Listening/dance:	dance
!!!One_Mode:	yes
**kern
*thru
*I"P1
*clefG2
*k[f#]
*G:
*M2/4
*>A
8d
=1
4b
4cc
=2
16ddLL
16ee
16dd
16ccJJ
4b
=3
8cc
4a
8a
=4
8dd
8r
(8qcc#X/
8.dd^L)
16ccnJk
=5
8bL
8bJ
8ccL
8ccJ
=6
16ddLL
16ee
16dd
16ccJJ
4b
=7
8cc
4a
8a
=8
2g
=9||
*>B
8.bL
16ccJk
16ddLL
16ee
16dd
16cc#XJJ
=10
16ddLL
16ee
16dd
16cc#XJJ
8ddL
8bJ
=11
8ccn
4a
8a
=12
8dd
8r
(8.dd^L
16ccJk)
=13
(8.bL
16ccJk)
16ddLL
16ee
16dd
16cc#XJJ
=14
16ddLL
16ee
16dd
16cc#XJJ
8ddL
8bJ
=15
8ccn
4a
8a
=16
4g
4g
==
*-
